world_stage/static/flags/rect/fsm.svg

<svg height="533.33331" viewBox="0 0 800 533.33331" width="800" xmlns="http://www.w3.org/2000/svg"><path d="m0 0h600v400h-600z" fill="#75b2dd" transform="matrix(1.3333333 0 0 -1.3333333 0 533.33333)"/><g fill="#fff"><path d="m0 0-12.361-38.042 19.021-6.181" transform="matrix(1.3333333 0 0 -1.3333333 396.19987 53.333333)"/><path d="m0 0 12.36-38.042-19.021-6.181" transform="matrix(1.3333333 0 0 -1.3333333 396.19987 53.333333)"/><path d="m0 0h-40v-20" transform="matrix(1.3333333 0 0 -1.3333333 446.92253 90.1856)"/><path d="m0 0-32.36-23.512-11.756 16.181" transform="matrix(1.3333333 0 0 -1.3333333 446.92253 90.1856)"/><path d="m0 0-12.361 38.042-19.021-6.18" transform="matrix(1.3333333 0 0 -1.3333333 427.5488 149.8144)"/><path d="m0 0-32.361 23.512 11.756 16.18" transform="matrix(1.3333333 0 0 -1.3333333 427.5488 149.8144)"/><path d="m0 0 32.361 23.512-11.756 16.18" transform="matrix(1.3333333 0 0 -1.3333333 364.85147 149.8144)"/><path d="m0 0 12.36 38.042 19.021-6.18" transform="matrix(1.3333333 0 0 -1.3333333 364.85147 149.8144)"/><path d="m0 0 32.361-23.512 11.756 16.181" transform="matrix(1.3333333 0 0 -1.3333333 345.47653 90.1856)"/><path d="m0 0h40v-20" transform="matrix(1.3333333 0 0 -1.3333333 345.47653 90.1856)"/><path d="m0 0-38.042 12.361-6.181-19.021" transform="matrix(1.3333333 0 0 -1.3333333 609.5332 266.66667)"/><path d="m0 0-38.042-12.36-6.181 19.021" transform="matrix(1.3333333 0 0 -1.3333333 609.5332 266.66667)"/><path d="m0 0v40h-20" transform="matrix(1.3333333 0 0 -1.3333333 572.68027 317.38933)"/><path d="m0 0-23.511 32.36 16.18 11.756" transform="matrix(1.3333333 0 0 -1.3333333 572.68027 317.38933)"/><path d="m0 0 38.042 12.361-6.181 19.021" transform="matrix(1.3333333 0 0 -1.3333333 513.05267 298.0156)"/><path d="m0 0 23.511 32.361 16.18-11.756" transform="matrix(1.3333333 0 0 -1.3333333 513.05267 298.0156)"/><path d="m0 0 23.511-32.361 16.18 11.756" transform="matrix(1.3333333 0 0 -1.3333333 513.05267 235.3184)"/><path d="m0 0 38.042-12.36-6.181-19.021" transform="matrix(1.3333333 0 0 -1.3333333 513.05267 235.3184)"/><path d="m0 0-23.511-32.361 16.18-11.756" transform="matrix(1.3333333 0 0 -1.3333333 572.68027 215.94333)"/><path d="m0 0v-40h-20" transform="matrix(1.3333333 0 0 -1.3333333 572.68027 215.94333)"/><path d="m0 0 12.36 38.042-19.021 6.181" transform="matrix(1.3333333 0 0 -1.3333333 396.19987 480)"/><path d="m0 0-12.361 38.042 19.021 6.181" transform="matrix(1.3333333 0 0 -1.3333333 396.19987 480)"/><path d="m0 0h40v20" transform="matrix(1.3333333 0 0 -1.3333333 345.47653 443.1472)"/><path d="m0 0 32.361 23.511 11.756-16.18" transform="matrix(1.3333333 0 0 -1.3333333 345.47653 443.1472)"/><path d="m0 0 12.36-38.042 19.021 6.181" transform="matrix(1.3333333 0 0 -1.3333333 364.85147 383.51947)"/><path d="m0 0 32.361-23.511-11.756-16.18" transform="matrix(1.3333333 0 0 -1.3333333 364.85147 383.51947)"/><path d="m0 0-32.361-23.511 11.756-16.18" transform="matrix(1.3333333 0 0 -1.3333333 427.5488 383.51947)"/><path d="m0 0-12.361-38.042-19.021 6.181" transform="matrix(1.3333333 0 0 -1.3333333 427.5488 383.51947)"/><path d="m0 0-32.36 23.511-11.756-16.18" transform="matrix(1.3333333 0 0 -1.3333333 446.92253 443.1472)"/><path d="m0 0h-40v20" transform="matrix(1.3333333 0 0 -1.3333333 446.92253 443.1472)"/><path d="m0 0 38.042-12.36 6.181 19.021" transform="matrix(1.3333333 0 0 -1.3333333 182.86653 266.66667)"/><path d="m0 0 38.042 12.361 6.181-19.021" transform="matrix(1.3333333 0 0 -1.3333333 182.86653 266.66667)"/><path d="m0 0v-40h20" transform="matrix(1.3333333 0 0 -1.3333333 219.71867 215.94333)"/><path d="m0 0 23.512-32.361-16.181-11.756" transform="matrix(1.3333333 0 0 -1.3333333 219.71867 215.94333)"/><path d="m0 0-38.042-12.36 6.18-19.021" transform="matrix(1.3333333 0 0 -1.3333333 279.3476 235.3184)"/><path d="m0 0-23.512-32.361-16.18 11.756" transform="matrix(1.3333333 0 0 -1.3333333 279.3476 235.3184)"/><path d="m0 0-23.512 32.361-16.18-11.756" transform="matrix(1.3333333 0 0 -1.3333333 279.3476 298.0156)"/><path d="m0 0-38.042 12.361 6.18 19.021" transform="matrix(1.3333333 0 0 -1.3333333 279.3476 298.0156)"/><g transform="matrix(1.3333333 0 0 -1.3333333 219.71867 317.38933)"><path d="m0 0 23.512 32.36-16.181 11.756"/><path d="m0 0v40h20"/></g></g></svg>

<?xml version="1.0" encoding="UTF-8" standalone="no"?>
<!-- Created with Inkscape (http://www.inkscape.org/) -->

<svg
   version="1.1"
   id="svg1"
   width="800"
   height="533.33331"
   viewBox="0 0 800 533.33331"
   sodipodi:docname="fm.ai"
   xmlns:inkscape="http://www.inkscape.org/namespaces/inkscape"
   xmlns:sodipodi="http://sodipodi.sourceforge.net/DTD/sodipodi-0.dtd"
   xmlns="http://www.w3.org/2000/svg"
   xmlns:svg="http://www.w3.org/2000/svg">
  <defs
     id="defs1" />
  <sodipodi:namedview
     id="namedview1"
     pagecolor="#ffffff"
     bordercolor="#000000"
     borderopacity="0.25"
     inkscape:showpageshadow="2"
     inkscape:pageopacity="0.0"
     inkscape:pagecheckerboard="0"
     inkscape:deskcolor="#d1d1d1">
    <inkscape:page
       x="0"
       y="0"
       inkscape:label="1"
       id="page1"
       width="800"
       height="533.33331"
       margin="0"
       bleed="0" />
  </sodipodi:namedview>
  <g
     id="layer-MC0"
     inkscape:groupmode="layer"
     inkscape:label="Layer 1">
    <path
       id="path1"
       d="M 0,0 H 600 V 400 H 0 Z"
       style="fill:#75b2dd;fill-opacity:1;fill-rule:nonzero;stroke:none"
       transform="matrix(1.3333333,0,0,-1.3333333,0,533.33333)" />
    <path
       id="path2"
       d="M 0,0 -12.361,-38.042 6.66,-44.223"
       style="fill:#ffffff;fill-opacity:1;fill-rule:nonzero;stroke:none"
       transform="matrix(1.3333333,0,0,-1.3333333,396.19987,53.333333)" />
    <path
       id="path3"
       d="M 0,0 12.36,-38.042 -6.661,-44.223"
       style="fill:#ffffff;fill-opacity:1;fill-rule:nonzero;stroke:none"
       transform="matrix(1.3333333,0,0,-1.3333333,396.19987,53.333333)" />
    <path
       id="path4"
       d="M 0,0 H -40 V -20"
       style="fill:#ffffff;fill-opacity:1;fill-rule:nonzero;stroke:none"
       transform="matrix(1.3333333,0,0,-1.3333333,446.92253,90.1856)" />
    <path
       id="path5"
       d="M 0,0 -32.36,-23.512 -44.116,-7.331"
       style="fill:#ffffff;fill-opacity:1;fill-rule:nonzero;stroke:none"
       transform="matrix(1.3333333,0,0,-1.3333333,446.92253,90.1856)" />
    <path
       id="path6"
       d="m 0,0 -12.361,38.042 -19.021,-6.18"
       style="fill:#ffffff;fill-opacity:1;fill-rule:nonzero;stroke:none"
       transform="matrix(1.3333333,0,0,-1.3333333,427.5488,149.8144)" />
    <path
       id="path7"
       d="m 0,0 -32.361,23.512 11.756,16.18"
       style="fill:#ffffff;fill-opacity:1;fill-rule:nonzero;stroke:none"
       transform="matrix(1.3333333,0,0,-1.3333333,427.5488,149.8144)" />
    <path
       id="path8"
       d="M 0,0 32.361,23.512 20.605,39.692"
       style="fill:#ffffff;fill-opacity:1;fill-rule:nonzero;stroke:none"
       transform="matrix(1.3333333,0,0,-1.3333333,364.85147,149.8144)" />
    <path
       id="path9"
       d="m 0,0 12.36,38.042 19.021,-6.18"
       style="fill:#ffffff;fill-opacity:1;fill-rule:nonzero;stroke:none"
       transform="matrix(1.3333333,0,0,-1.3333333,364.85147,149.8144)" />
    <path
       id="path10"
       d="M 0,0 32.361,-23.512 44.117,-7.331"
       style="fill:#ffffff;fill-opacity:1;fill-rule:nonzero;stroke:none"
       transform="matrix(1.3333333,0,0,-1.3333333,345.47653,90.1856)" />
    <path
       id="path11"
       d="M 0,0 H 40 V -20"
       style="fill:#ffffff;fill-opacity:1;fill-rule:nonzero;stroke:none"
       transform="matrix(1.3333333,0,0,-1.3333333,345.47653,90.1856)" />
    <path
       id="path12"
       d="M 0,0 -38.042,12.361 -44.223,-6.66"
       style="fill:#ffffff;fill-opacity:1;fill-rule:nonzero;stroke:none"
       transform="matrix(1.3333333,0,0,-1.3333333,609.5332,266.66667)" />
    <path
       id="path13"
       d="M 0,0 -38.042,-12.36 -44.223,6.661"
       style="fill:#ffffff;fill-opacity:1;fill-rule:nonzero;stroke:none"
       transform="matrix(1.3333333,0,0,-1.3333333,609.5332,266.66667)" />
    <path
       id="path14"
       d="M 0,0 V 40 H -20"
       style="fill:#ffffff;fill-opacity:1;fill-rule:nonzero;stroke:none"
       transform="matrix(1.3333333,0,0,-1.3333333,572.68027,317.38933)" />
    <path
       id="path15"
       d="m 0,0 -23.511,32.36 16.18,11.756"
       style="fill:#ffffff;fill-opacity:1;fill-rule:nonzero;stroke:none"
       transform="matrix(1.3333333,0,0,-1.3333333,572.68027,317.38933)" />
    <path
       id="path16"
       d="M 0,0 38.042,12.361 31.861,31.382"
       style="fill:#ffffff;fill-opacity:1;fill-rule:nonzero;stroke:none"
       transform="matrix(1.3333333,0,0,-1.3333333,513.05267,298.0156)" />
    <path
       id="path17"
       d="M 0,0 23.511,32.361 39.691,20.605"
       style="fill:#ffffff;fill-opacity:1;fill-rule:nonzero;stroke:none"
       transform="matrix(1.3333333,0,0,-1.3333333,513.05267,298.0156)" />
    <path
       id="path18"
       d="m 0,0 23.511,-32.361 16.18,11.756"
       style="fill:#ffffff;fill-opacity:1;fill-rule:nonzero;stroke:none"
       transform="matrix(1.3333333,0,0,-1.3333333,513.05267,235.3184)" />
    <path
       id="path19"
       d="M 0,0 38.042,-12.36 31.861,-31.381"
       style="fill:#ffffff;fill-opacity:1;fill-rule:nonzero;stroke:none"
       transform="matrix(1.3333333,0,0,-1.3333333,513.05267,235.3184)" />
    <path
       id="path20"
       d="m 0,0 -23.511,-32.361 16.18,-11.756"
       style="fill:#ffffff;fill-opacity:1;fill-rule:nonzero;stroke:none"
       transform="matrix(1.3333333,0,0,-1.3333333,572.68027,215.94333)" />
    <path
       id="path21"
       d="M 0,0 V -40 H -20"
       style="fill:#ffffff;fill-opacity:1;fill-rule:nonzero;stroke:none"
       transform="matrix(1.3333333,0,0,-1.3333333,572.68027,215.94333)" />
    <path
       id="path22"
       d="M 0,0 12.36,38.042 -6.661,44.223"
       style="fill:#ffffff;fill-opacity:1;fill-rule:nonzero;stroke:none"
       transform="matrix(1.3333333,0,0,-1.3333333,396.19987,480)" />
    <path
       id="path23"
       d="M 0,0 -12.361,38.042 6.66,44.223"
       style="fill:#ffffff;fill-opacity:1;fill-rule:nonzero;stroke:none"
       transform="matrix(1.3333333,0,0,-1.3333333,396.19987,480)" />
    <path
       id="path24"
       d="M 0,0 H 40 V 20"
       style="fill:#ffffff;fill-opacity:1;fill-rule:nonzero;stroke:none"
       transform="matrix(1.3333333,0,0,-1.3333333,345.47653,443.1472)" />
    <path
       id="path25"
       d="M 0,0 32.361,23.511 44.117,7.331"
       style="fill:#ffffff;fill-opacity:1;fill-rule:nonzero;stroke:none"
       transform="matrix(1.3333333,0,0,-1.3333333,345.47653,443.1472)" />
    <path
       id="path26"
       d="m 0,0 12.36,-38.042 19.021,6.181"
       style="fill:#ffffff;fill-opacity:1;fill-rule:nonzero;stroke:none"
       transform="matrix(1.3333333,0,0,-1.3333333,364.85147,383.51947)" />
    <path
       id="path27"
       d="M 0,0 32.361,-23.511 20.605,-39.691"
       style="fill:#ffffff;fill-opacity:1;fill-rule:nonzero;stroke:none"
       transform="matrix(1.3333333,0,0,-1.3333333,364.85147,383.51947)" />
    <path
       id="path28"
       d="m 0,0 -32.361,-23.511 11.756,-16.18"
       style="fill:#ffffff;fill-opacity:1;fill-rule:nonzero;stroke:none"
       transform="matrix(1.3333333,0,0,-1.3333333,427.5488,383.51947)" />
    <path
       id="path29"
       d="m 0,0 -12.361,-38.042 -19.021,6.181"
       style="fill:#ffffff;fill-opacity:1;fill-rule:nonzero;stroke:none"
       transform="matrix(1.3333333,0,0,-1.3333333,427.5488,383.51947)" />
    <path
       id="path30"
       d="M 0,0 -32.36,23.511 -44.116,7.331"
       style="fill:#ffffff;fill-opacity:1;fill-rule:nonzero;stroke:none"
       transform="matrix(1.3333333,0,0,-1.3333333,446.92253,443.1472)" />
    <path
       id="path31"
       d="M 0,0 H -40 V 20"
       style="fill:#ffffff;fill-opacity:1;fill-rule:nonzero;stroke:none"
       transform="matrix(1.3333333,0,0,-1.3333333,446.92253,443.1472)" />
    <path
       id="path32"
       d="M 0,0 38.042,-12.36 44.223,6.661"
       style="fill:#ffffff;fill-opacity:1;fill-rule:nonzero;stroke:none"
       transform="matrix(1.3333333,0,0,-1.3333333,182.86653,266.66667)" />
    <path
       id="path33"
       d="M 0,0 38.042,12.361 44.223,-6.66"
       style="fill:#ffffff;fill-opacity:1;fill-rule:nonzero;stroke:none"
       transform="matrix(1.3333333,0,0,-1.3333333,182.86653,266.66667)" />
    <path
       id="path34"
       d="M 0,0 V -40 H 20"
       style="fill:#ffffff;fill-opacity:1;fill-rule:nonzero;stroke:none"
       transform="matrix(1.3333333,0,0,-1.3333333,219.71867,215.94333)" />
    <path
       id="path35"
       d="M 0,0 23.512,-32.361 7.331,-44.117"
       style="fill:#ffffff;fill-opacity:1;fill-rule:nonzero;stroke:none"
       transform="matrix(1.3333333,0,0,-1.3333333,219.71867,215.94333)" />
    <path
       id="path36"
       d="m 0,0 -38.042,-12.36 6.18,-19.021"
       style="fill:#ffffff;fill-opacity:1;fill-rule:nonzero;stroke:none"
       transform="matrix(1.3333333,0,0,-1.3333333,279.3476,235.3184)" />
    <path
       id="path37"
       d="m 0,0 -23.512,-32.361 -16.18,11.756"
       style="fill:#ffffff;fill-opacity:1;fill-rule:nonzero;stroke:none"
       transform="matrix(1.3333333,0,0,-1.3333333,279.3476,235.3184)" />
    <path
       id="path38"
       d="M 0,0 -23.512,32.361 -39.692,20.605"
       style="fill:#ffffff;fill-opacity:1;fill-rule:nonzero;stroke:none"
       transform="matrix(1.3333333,0,0,-1.3333333,279.3476,298.0156)" />
    <path
       id="path39"
       d="m 0,0 -38.042,12.361 6.18,19.021"
       style="fill:#ffffff;fill-opacity:1;fill-rule:nonzero;stroke:none"
       transform="matrix(1.3333333,0,0,-1.3333333,279.3476,298.0156)" />
    <path
       id="path40"
       d="M 0,0 23.512,32.36 7.331,44.116"
       style="fill:#ffffff;fill-opacity:1;fill-rule:nonzero;stroke:none"
       transform="matrix(1.3333333,0,0,-1.3333333,219.71867,317.38933)" />
    <path
       id="path41"
       d="M 0,0 V 40 H 20"
       style="fill:#ffffff;fill-opacity:1;fill-rule:nonzero;stroke:none"
       transform="matrix(1.3333333,0,0,-1.3333333,219.71867,317.38933)" />
  </g>
</svg>
